X:1
T:No.1 The Boys Of Malin
C:reel
M:4/4
L:1/8
K:A
ABcd eAce|fedf edcB|ABcd eAce|
|[1fdBc d2 cB:|[2fdBc defg||aA (3AAA cAce|
a2 ag fefg|aA (3AAA cAce|dcBc defg|
aA (3AAA cAce|a2 ag fefg|afge f2 ec|dcBc d2 cB||
Aece Aece|Aece d2 cB|Aece Aece|fdBc d2 cB:||
